X:1
T:Harvest Moon
T:Paddy O'Brien's
C:Paddy O'Brien
D:Martin Connolly "Back to Brooklyn"
M:2/2
Z:Erickson, Jeffrey <jeerickson@davidson.edu>
L:1/8
R:reel
K:Ador
S:Paul Groff, house concert/session, Raleigh, NC
cd \
| eAAG AcBA | GEDE GABd | e2AB       cdeg | afge d2cd |
| eAAG AcBA | GEDE GABd | e/2f/2g af gedB | GBdB BAA2 |
B \
| c3d  eg3 | ea3 g2fg | e2AB cdeg | afge dged |
| cBcd eg3 | ea3 gedB | c2BA GEDE | GABG A3 |]
